X:43
T:Cherry and Merry
M:6/8
L:1/8
B:Thompson's Compleat Collection of 200 Favourite Country Dances, vol. 3 (London, 1773)
Z:Transcribed and edited by Flynn Titford-Mock, 2007
Z:abc's:AK/Fiddler's Companion
K:G
g2d BGB | e2c AFA | d2B GBG | EAG FED | g2d BGB | e2c AFA |
dcB ABG | DGF G3::g2g bge | f2f afd | B2g fe(d | d>)e^c d2=f | ecc ege |
dBB dgd | cBA edc | BAG FED | EcE cEc | DBD BDB | ABG FDe | BcA G3 :|

